icons/OpenLotus/actions/22/im-google-talk.svg

<?xml version="1.0" encoding="UTF-8" standalone="no"?>
<!-- Created with Inkscape (http://www.inkscape.org/) -->

<svg
   xmlns:dc="http://purl.org/dc/elements/1.1/"
   xmlns:cc="http://creativecommons.org/ns#"
   xmlns:rdf="http://www.w3.org/1999/02/22-rdf-syntax-ns#"
   xmlns:svg="http://www.w3.org/2000/svg"
   xmlns="http://www.w3.org/2000/svg"
   xmlns:sodipodi="http://sodipodi.sourceforge.net/DTD/sodipodi-0.dtd"
   xmlns:inkscape="http://www.inkscape.org/namespaces/inkscape"
   width="22.000002"
   height="22"
   viewBox="0 0 22.000002 22"
   version="1.1"
   id="main"
   inkscape:version="0.92+devel (327bdefa15, 2017-09-17, custom)"
   sodipodi:docname="im-google-talk.svg">
  <defs
     id="ol-defs" />
  <sodipodi:namedview
     id="base"
     pagecolor="#002466"
     bordercolor="#ffffff"
     borderopacity="0.30"
     inkscape:pageopacity="1"
     inkscape:pageshadow="2"
     inkscape:zoom="13.140625"
     inkscape:document-units="px"
     inkscape:current-layer="main"
     inkscape:document-rotation="0"
     showgrid="false"
     inkscape:showpageshadow="false"
     borderlayer="true"
     inkscape:window-width="1920"
     inkscape:window-height="1017"
     inkscape:window-x="0"
     inkscape:window-y="34"
     inkscape:window-maximized="1"
     units="px"
     inkscape:cx="6.4045386"
     inkscape:cy="8.0269054" />
  <metadata
     id="metadata5">
    <rdf:RDF>
      <cc:Work
         rdf:about="">
        <dc:format>image/svg+xml</dc:format>
        <dc:type
           rdf:resource="http://purl.org/dc/dcmitype/StillImage" />
        <dc:title></dc:title>
      </cc:Work>
    </rdf:RDF>
  </metadata>
  <g
     id="g839"
     inkscape:label="#im-google-talk"
     style="stroke:none">
    <path
       style="fill:none;stroke:none;stroke-width:1"
       d="M 0,0 H 22.000001 V 22 H 0 Z"
       id="boundary"
       inkscape:label="#boundary"
       inkscape:connector-curvature="0" />
    <path
       inkscape:label="#"
       style="opacity:0.6;fill:#d0d0d0;fill-opacity:1;stroke:none;stroke-width:1"
       d="m 11,3.0000001 c -4.4181656,0 -8.0000002,2.6864 -7.9999994,6.0000004 0,3.2628995 3.476102,5.9116865 7.8007824,5.9921865 V 19 c 8.21642,-4.7437 8.199218,-7.7342 8.199218,-9.9999995 C 19.000001,5.6864001 15.418165,3.0000001 11,3.0000001 Z M 7.2597663,6.0644526 H 10.341797 V 9.148438 h -0.0098 c 0.0065,0.073 0.0098,0.146403 0.0098,0.220703 0,1.263399 -0.9667136,2.298855 -2.2011713,2.410155 v -0.892577 c 0.7459987,-0.107707 1.3203127,-0.741779 1.3203127,-1.517578 0,-0.075 -0.00911,-0.148503 -0.019531,-0.220703 H 7.2597663 Z m 4.3984367,0 h 3.082032 V 9.148438 h -0.0099 c 0.0065,0.073 0.0099,0.146403 0.0099,0.220703 0,1.263399 -0.966713,2.298855 -2.201172,2.410155 v -0.892577 c 0.746,-0.107707 1.320312,-0.741779 1.320312,-1.517578 0,-0.075 -0.0071,-0.148503 -0.01759,-0.220703 h -2.18359 z"
       id="path1383"
       inkscape:connector-curvature="0" />
  </g>
</svg>

<svg xmlns="http://www.w3.org/2000/svg" viewBox="0 0 22 22">
  <defs id="defs3051">
    <style type="text/css" id="current-color-scheme">
      .ColorScheme-Text {
        color:#f2f2f2;
      }
      </style>
  </defs>
 <path 
     style="fill:currentColor;fill-opacity:1;stroke:none" 
     d="M 11 3 C 6.5818339 3 2.999999 5.6864 3 9 C 3 12.2629 6.4761021 14.911687 10.800781 14.992188 L 10.800781 19 C 19.017202 14.2563 19 11.2658 19 9 C 19 5.6864 15.418165 3 11 3 z M 7.2597656 6.0644531 L 10.341797 6.0644531 L 10.341797 9.1484375 L 10.332031 9.1484375 C 10.338531 9.2214375 10.341797 9.2948406 10.341797 9.3691406 C 10.341797 10.632541 9.375082 11.667997 8.140625 11.779297 L 8.140625 10.886719 C 8.886623 10.779019 9.4609375 10.144941 9.4609375 9.3691406 C 9.4609375 9.2941406 9.4518863 9.2206375 9.4414062 9.1484375 L 7.2597656 9.1484375 L 7.2597656 6.0644531 z M 11.658203 6.0644531 L 14.740234 6.0644531 L 14.740234 9.1484375 L 14.730469 9.1484375 C 14.736969 9.2214375 14.740234 9.2948406 14.740234 9.3691406 C 14.740234 10.632541 13.77352 11.667997 12.539062 11.779297 L 12.539062 10.886719 C 13.285061 10.779019 13.859375 10.144941 13.859375 9.3691406 C 13.859375 9.2941406 13.852277 9.2206375 13.841797 9.1484375 L 11.658203 9.1484375 L 11.658203 6.0644531 z "
     class="ColorScheme-Text"
     />
</svg>
